svg/fluentui-system-icons/ic_fluent_checkbox_indeterminate_16_regular.svg

<svg width="16" height="16" viewBox="0 0 16 16" fill="none" xmlns="http://www.w3.org/2000/svg">
<path d="M4.5 2C3.11929 2 2 3.11929 2 4.5V11.5C2 12.8807 3.11929 14 4.5 14H11.5C12.8807 14 14 12.8807 14 11.5V4.5C14 3.11929 12.8807 2 11.5 2H4.5ZM3 4.5C3 3.67157 3.67157 3 4.5 3H11.5C12.3284 3 13 3.67157 13 4.5V11.5C13 12.3284 12.3284 13 11.5 13H4.5C3.67157 13 3 12.3284 3 11.5V4.5ZM5 4C4.44772 4 4 4.44772 4 5V11C4 11.5523 4.44772 12 5 12H11C11.5523 12 12 11.5523 12 11V5C12 4.44772 11.5523 4 11 4H5Z" fill="#212121"/>
</svg>

<svg xmlns="http://www.w3.org/2000/svg" width="16" height="16"><path d="M4.5 2A2.5 2.5 0 0 0 2 4.5v7A2.5 2.5 0 0 0 4.5 14h7a2.5 2.5 0 0 0 2.5-2.5v-7A2.5 2.5 0 0 0 11.5 2h-7ZM3 4.5A1.5 1.5 0 0 1 4.5 3h7A1.5 1.5 0 0 1 13 4.5v7a1.5 1.5 0 0 1-1.5 1.5h-7A1.5 1.5 0 0 1 3 11.5v-7ZM5 4a1 1 0 0 0-1 1v6a1 1 0 0 0 1 1h6a1 1 0 0 0 1-1V5a1 1 0 0 0-1-1H5Z"/></svg>
